X:203
T: Bulgar (Russian)
O:klezmer
C: Abe Schwartz
R: bulgar
D: Naftule's Dream Music
M: 2/4
L: 1/8
K: GMix
|: "G"B_A G2 | B_A G2 | B_A GA | "Fm"GF F2 | EF G_A | Bc B_A |1 "G"G2 B2 | d2 g2 :|2 "G"G4- | G4 |]
[| "G"G2 _e2 | dc Bc | d3 c | B_A G2 | "G"G2 _e2 | dc Bc | d4 | g4 |
| "Fm"c>B c>B | cB _AG | F2 G_A | G F3 | f_e dc | BF G_A | "G"G4- | G4 |]





